Origami/24x24/apps/lifeograph.svg

<svg width="24" height="24" version="1" xmlns="http://www.w3.org/2000/svg">
 <rect transform="matrix(0,-1,-1,0,0,0)" x="-22" y="-22" width="20" height="20" rx="1" ry="1" style="fill:#ec8c38"/>
 <path d="m22 21v-18c0-0.554-0.446-1-1-1h-9v20h9c0.554 0 1-0.446 1-1z" style="fill:#ffffff;opacity:.2"/>
 <path d="m3 2c-0.554 0-1 0.446-1 1v0.5c0-0.554 0.446-1 1-1h18c0.554 0 1 0.446 1 1v-0.5c0-0.554-0.446-1-1-1h-18z" style="fill:#ffffff;opacity:.2"/>
 <path d="m3 22.5c-0.554 0-1-0.446-1-1v-0.5c0 0.554 0.446 1 1 1h18c0.554 0 1-0.446 1-1v0.5c0 0.554-0.446 1-1 1h-18z" style="opacity:.2"/>
 <g transform="translate(0,1.5)" style="opacity:.2">
  <path d="m7 5a4 4 0 0 0 -4 4 4 4 0 0 0 4 4 4 4 0 0 0 4 -4 4 4 0 0 0 -4 -4zm0 2a2 2 0 0 1 2 2 2 2 0 0 1 -2 2 2 2 0 0 1 -2 -2 2 2 0 0 1 2 -2z"/>
  <rect transform="scale(1,-1)" x="6" y="-18" width="2" height="7"/>
  <rect transform="scale(1,-1)" x="8" y="-17" width="2" height="2"/>
 </g>
 <g transform="translate(0,1)" style="fill:#ffef78">
  <path d="m7 5a4 4 0 0 0 -4 4 4 4 0 0 0 4 4 4 4 0 0 0 4 -4 4 4 0 0 0 -4 -4zm0 2a2 2 0 0 1 2 2 2 2 0 0 1 -2 2 2 2 0 0 1 -2 -2 2 2 0 0 1 2 -2z" style="fill:#ffef78"/>
  <rect transform="scale(1,-1)" x="6" y="-18" width="2" height="7" style="fill:#ffef78"/>
  <rect transform="scale(1,-1)" x="8" y="-17" width="2" height="2" style="fill:#ffef78"/>
 </g>
</svg>

<svg xmlns="http://www.w3.org/2000/svg" width="24" height="24" version="1">
 <rect style="fill:#ec8c38" width="20" height="20" x="-22" y="-22" rx="1" ry="1" transform="matrix(0,-1,-1,0,0,0)"/>
 <path style="opacity:0.2;fill:#ffffff" d="M 22,21 22,3 C 22,2.446 21.554,2 21,2 l -9,0 0,20 9,0 c 0.554,0 1,-0.446 1,-1 z"/>
 <path style="opacity:0.2;fill:#ffffff" d="M 3,2 C 2.446,2 2,2.446 2,3 l 0,0.5 c 0,-0.554 0.446,-1 1,-1 l 18,0 c 0.554,0 1,0.446 1,1 L 22,3 C 22,2.446 21.554,2 21,2 L 3,2 Z"/>
 <path style="opacity:0.2" d="m 3,22.5 c -0.554,0 -1,-0.446 -1,-1 L 2,21 c 0,0.554 0.446,1 1,1 l 18,0 c 0.554,0 1,-0.446 1,-1 l 0,0.5 c 0,0.554 -0.446,1 -1,1 l -18,0 z"/>
 <g style="opacity:0.2" transform="translate(0,1.5)">
  <path d="M 7,5 A 4,4 0 0 0 3,9 4,4 0 0 0 7,13 4,4 0 0 0 11,9 4,4 0 0 0 7,5 Z M 7,7 A 2,2 0 0 1 9,9 2,2 0 0 1 7,11 2,2 0 0 1 5,9 2,2 0 0 1 7,7 Z"/>
  <rect width="2" height="7" x="6" y="-18" transform="scale(1,-1)"/>
  <rect width="2" height="2" x="8" y="-17" transform="scale(1,-1)"/>
 </g>
 <g style="fill:#ffef78" transform="translate(0,1)">
  <path style="fill:#ffef78" d="M 7,5 A 4,4 0 0 0 3,9 4,4 0 0 0 7,13 4,4 0 0 0 11,9 4,4 0 0 0 7,5 Z M 7,7 A 2,2 0 0 1 9,9 2,2 0 0 1 7,11 2,2 0 0 1 5,9 2,2 0 0 1 7,7 Z"/>
  <rect style="fill:#ffef78" width="2" height="7" x="6" y="-18" transform="scale(1,-1)"/>
  <rect style="fill:#ffef78" width="2" height="2" x="8" y="-17" transform="scale(1,-1)"/>
 </g>
</svg>
